!!!COM: katy-perry
!!!OTL: wide-awake
!!!RNB: hooktheoryid: WAbm_kdJmak
**kern	**text
*clefG2	*
*k[b-]	*
*M4/4	*
=1	=1
2g	Gm
8r	.
8f	.
8g	.
8f	.
=2	=2
8a	Bb
8g	.
8f	.
8g	.
8r	.
8f	.
8g	.
8f	.
=3	=3
8a	F
8g	.
8f	.
8g	.
8r	.
8f	.
8g	.
8f	.
=4	=4
8a	C
8g	.
8f	.
8g	.
8r	.
8f	.
8f	.
8g	.
=5	=5
2g	Gm
8r	.
8f	.
8g	.
8f	.
=6	=6
8a	Bb
8g	.
8f	.
8g	.
8r	.
8f	.
8r	.
8d	.
=7	=7
4.c	F
4r	.
8c	.
8f	.
[8e	.
=8	=8
2e]	C
8r	.
8f	.
8f	.
8g	.
=9	=9
2g	Gm
8r	.
8f	.
8g	.
8f	.
=10	=10
8a	Bb
8g	.
8f	.
8g	.
8r	.
8f	.
8g	.
8f	.
=11	=11
8a	F
8g	.
8f	.
8g	.
8r	.
8f	.
8g	.
8f	.
=12	=12
8a	C
8g	.
8f	.
8g	.
8r	.
8f	.
8f	.
8g	.
=13	=13
2g	Gm
8r	.
8f	.
8g	.
8f	.
=14	=14
8a	Bb
8g	.
8f	.
8g	.
8r	.
8f	.
8r	.
8d	.
=15	=15
4.c	F
2r	.
8r	.
=16	=16
4.r	C
8c	.
8c	.
8c	.
4g	.
=17	=17
4g	Gm
4r	.
8c	.
8c	.
4g	.
=18	=18
4g	Bb
4r	.
8c	.
8c	.
4f	.
=19	=19
4f	F
4r	.
8c	.
8c	.
4f	.
=20	=20
4f	C
4r	.
8c	.
8c	.
4g	.
=21	=21
4g	Gm
8r	.
8c	.
8c	.
8c	.
4g	.
=22	=22
4g	Bb
4r	.
8c	.
8c	.
4f	.
=23	=23
4f	F
4r	.
4cc	.
4r	.
=24	=24
8cc	C
8a	.
4cc	.
4g	.
4r	.
*-	*-